X:1
T:Off to California
M:12/8
L:1/8
C:Traditional
Q:C3=120
K:G Major
%%partsfont Times-Bold 16.0
%%MIDI channel 1
%%MIDI control 7 50% volume = 50
%%MIDI program 41       % General MIDI violin
%%MIDI transpose 0
%%MIDI gchordoff
P:A
|: DEF | G2FG2B A2GE2D | G2Bd2g e3 def | g2fg2d e2dB2G | A2BA2G E3 DEF |\
G2FG2B A2GE2D | G2Bd2g e3 def | g2fg2d e2dB2G | A2BA2F G3 :|
P:B
def | g2fe2g f2ed2f | e2de2f e2dB3 | g2fg2d e2dB2G | A2BA2G E3 DEF |
G2FG2B A2GE2D | G2Bd2g e3 def | g2fg2d e2dB2G | A2BA2F G3 |]
